src/assets/icons/selectivelogo.svg

<svg version="1.2" xmlns="http://www.w3.org/2000/svg" viewBox="0 0 1546 403" width="1546" height="403"><defs><clipPath clipPathUnits="userSpaceOnUse" id="cp1"><path d="m-4554-4347h6627v5124h-6627z"/></clipPath></defs><style>.a{fill:#ffcf31}</style><g clip-path="url(#cp1)"><path  d="m1.6 223.6l9.1-16.1c1.6-2.5 5.2-2.1 6.6-1.1 0.8 0.3 14.7 10.6 27.4 10.6 7.7 0 13.3-4.8 13.3-11.6 0-8.1-6.7-14.3-19.9-19.5-16.6-6.6-37.4-19.5-37.4-42.7 0-19.1 14.8-38.5 44.6-38.5 20.1 0 35.5 10.3 41.3 14.5 2.3 1.4 1.9 4.9 1.2 6.2l-9.9 14.9c-1.3 2.1-4.8 3.8-6.6 2.5-1.7-1-15.8-11.6-27.6-11.6-6.9 0-12.1 4.6-12.1 9.9 0 7.1 5.8 12.5 21 18.7 15.1 6 39 17.8 39 44 0 19.9-17.2 40-45.5 40-25.1 0-39.1-10.4-43.5-14.8-1.9-2-2.5-2.7-1-5.4zm183.8-113.3c0-1.9 1.5-3.6 3.6-3.6h80c2.1 0 3.7 1.7 3.7 3.6v21.1c0 1.9-1.6 3.7-3.7 3.7h-53.5v23.9h44c1.9 0 3.7 1.8 3.7 3.7v21.1c0 2.1-1.8 3.6-3.7 3.6h-44v26.1h53.5c2.1 0 3.7 1.8 3.7 3.7v21c0 2-1.6 3.7-3.7 3.7h-80c-2.1 0-3.6-1.7-3.6-3.7zm179.1 0c0-1.9 1.5-3.6 3.6-3.6h23c2 0 3.7 1.7 3.7 3.6v103.2h45.9c2.2 0 3.7 1.8 3.7 3.7v21c0 2-1.5 3.7-3.7 3.7h-72.6c-2.1 0-3.6-1.7-3.6-3.7zm171.2 0c0-1.9 1.5-3.6 3.6-3.6h80c2.1 0 3.7 1.7 3.7 3.6v21.1c0 1.9-1.6 3.7-3.7 3.7h-53.5v23.9h44c2 0 3.7 1.8 3.7 3.7v21.1c0 2.1-1.7 3.6-3.7 3.6h-44v26.1h53.5c2.1 0 3.7 1.8 3.7 3.7v21c0 2-1.6 3.7-3.7 3.7h-80c-2.1 0-3.6-1.7-3.6-3.7zm250.6-5.6c19.3 0 33.6 6 46.7 18 1.7 1.6 1.7 3.9 0.2 5.4l-15.1 15.7c-1.3 1.3-3.4 1.3-4.8 0-7.1-6.4-16.6-9.9-26.1-9.9-21.8 0-37.8 18.2-37.8 39.8 0 21.5 16.2 39.2 38 39.2 9.1 0 19-3.3 25.9-9.2 1.4-1.2 3.9-1.2 5 0.2l15.1 16c1.3 1.3 1.2 3.9-0.2 5.2-13.1 12.8-29.7 18.7-46.9 18.7-38.6 0-69.7-30.7-69.7-69.3 0-38.7 31.1-69.8 69.7-69.8zm171.6 30.4h-27.6c-2.1 0-3.7-1.8-3.7-3.7v-21.1c0-1.9 1.6-3.6 3.7-3.6h85.7c2.2 0 3.7 1.7 3.7 3.6v21.1c0 1.9-1.5 3.7-3.7 3.7h-27.6v103.1c0 2-1.7 3.7-3.6 3.7h-23.2c-2 0-3.7-1.7-3.7-3.7zm154.8-24.7c0-1.9 1.8-3.6 3.7-3.6h23.2c1.9 0 3.6 1.7 3.6 3.6v127.9c0 1.9-1.7 3.7-3.6 3.7h-23.2c-1.9 0-3.7-1.8-3.7-3.7zm123 1.4c-1.1-2.5 0.4-5 3.3-5h25.7c1.5 0 2.9 1.1 3.3 2.1l31.8 70.5h1.2l31.9-70.5c0.3-1 1.7-2.1 3.2-2.1h25.7c2.9 0 4.5 2.5 3.3 5l-60.6 130c-0.6 1.2-1.8 2.1-3.3 2.1h-1.9c-1.6 0-2.7-0.9-3.3-2.1zm222.8-1.4c0-1.9 1.5-3.6 3.7-3.6h79.9c2.1 0 3.7 1.7 3.7 3.6v21.1c0 1.9-1.6 3.7-3.7 3.7h-53.5v23.9h44c2 0 3.7 1.8 3.7 3.7v21.1c0 2.1-1.7 3.6-3.7 3.6h-44v26.1h53.5c2.1 0 3.7 1.8 3.7 3.7v21c0 2-1.6 3.7-3.7 3.7h-79.9c-2.2 0-3.7-1.7-3.7-3.7z"/><path class="a" d="m1300.4 60c-16.6 0-30-13.4-30-30 0-16.6 13.4-30 30-30 16.6 0 30 13.4 30 30 0 16.6-13.4 30-30 30zm-89.2 15c-12.5 0-22.5-10.1-22.5-22.5 0-12.4 10-22.5 22.5-22.5 12.4 0 22.4 10.1 22.4 22.5 0 12.4-10 22.5-22.4 22.5zm177.4 0c-12.4 0-22.4-10.1-22.4-22.5 0-12.4 10-22.5 22.4-22.5 12.4 0 22.5 10.1 22.5 22.5 0 12.4-10.1 22.5-22.5 22.5z"/><path fill-rule="evenodd" d="m273.5 320.5c0-0.9 0.8-1.8 1.8-1.8h20.8c11.2 0 19.3 7.5 19.3 17.2 0 7.2-5.3 12.3-9.7 14.8 4.9 2 11.6 6.6 11.6 15.1 0 10.4-8.5 18-20.2 18h-21.8c-1 0-1.8-0.9-1.8-1.8zm23.5 54.7c5.7 0 10-4.4 10-10.1 0-5.7-5.4-9.8-11.4-9.8h-12.7v19.9zm-1.5-28.2c5.9 0 9.6-4.4 9.6-10 0-5.6-3.7-9.5-9.6-9.5h-12.5v19.5zm36.8-26.5c0-0.9 0.7-1.8 1.7-1.8h37.2c1 0 1.7 0.9 1.7 1.8v5.2c0 0.9-0.7 1.8-1.7 1.8h-29.4v18.9h24.8c1 0 1.8 0.9 1.8 1.8v5.2c0 1-0.8 1.7-1.8 1.7h-24.8v20h29.4c1 0 1.7 0.8 1.7 1.8v5.1c0 0.9-0.7 1.7-1.7 1.7h-37.2c-1 0-1.7-0.8-1.7-1.7zm78.9 0c0-0.9 0.8-1.8 1.7-1.8h6.3c1 0 1.7 0.9 1.7 1.8v38.3c0 9.3 6 16.6 15.4 16.6 9.6 0 15.6-7.2 15.6-16.4v-38.5c0-0.9 0.8-1.8 1.8-1.8h6.2c0.9 0 1.8 0.9 1.8 1.8v39c0 14.1-10.7 25.2-25.4 25.2-14.5 0-25.1-11.1-25.1-25.2zm68.4-1c0-1 0.8-1.7 1.7-1.7h2.3l40.3 46.6h0.1v-43.9c0-0.9 0.8-1.8 1.8-1.8h5.9c1 0 1.8 0.9 1.8 1.8v62.5c0 0.9-0.8 1.7-1.8 1.7h-2.4l-40.3-48h-0.1v45.3c0 0.9-0.7 1.7-1.7 1.7h-5.9c-0.9 0-1.7-0.8-1.7-1.7zm72.4 1c0-0.9 0.9-1.8 1.8-1.8h6.1c0.9 0 1.8 0.9 1.8 1.8v61.5c0 0.9-0.9 1.8-1.8 1.8h-6.1c-0.9 0-1.8-0.9-1.8-1.8zm57-2.7c18.5 0 33.4 14.9 33.4 33.5 0 13.2-7.7 24.6-18.9 30.2l11.2 17.8c0.8 1.3 0 2.8-1.5 2.8h-7.2c-0.4 0-1.2-0.3-1.5-0.9l-10-16.9c-1.8 0.3-3.9 0.4-5.5 0.4-18.6 0-33.4-14.8-33.4-33.4 0-18.6 14.8-33.5 33.4-33.5zm24.1 33.4c0-13.3-10.8-24.1-24.1-24.1-13.3 0-24.1 10.8-24.1 24.1 0 13.4 10.8 24.2 24.1 24.2 13.3 0 24.1-10.8 24.1-24.2zm22.7-30.7c0-0.9 0.8-1.8 1.7-1.8h6.3c1 0 1.7 0.9 1.7 1.8v38.3c0 9.3 6 16.6 15.4 16.6 9.6 0 15.6-7.2 15.6-16.4v-38.5c0-0.9 0.8-1.8 1.8-1.8h6.2c0.9 0 1.8 0.9 1.8 1.8v39c0 14.1-10.7 25.2-25.4 25.2-14.5 0-25.1-11.1-25.1-25.2zm68.4 0c0-0.9 0.7-1.8 1.7-1.8h37.2c1 0 1.7 0.9 1.7 1.8v5.2c0 0.9-0.7 1.8-1.7 1.8h-29.4v18.9h24.8c0.9 0 1.8 0.8 1.8 1.8v5.2c0 1-0.9 1.7-1.8 1.7h-24.8v20h29.4c1 0 1.7 0.8 1.7 1.8v5.1c0 0.9-0.7 1.7-1.7 1.7h-37.2c-1 0-1.7-0.8-1.7-1.7zm54.6 0c0-0.9 0.8-1.8 1.8-1.8h6.1c0.9 0 1.8 0.9 1.8 1.8v54.6h25.1c1.1 0 1.8 0.8 1.8 1.8v5.1c0 0.9-0.7 1.7-1.8 1.7h-33c-1 0-1.8-0.8-1.8-1.7zm53 31.9l-21.7-31c-0.7-1.2 0-2.7 1.5-2.7h6.9c0.7 0 1.2 0.5 1.5 0.8l16.8 23.7 16.8-23.7c0.2-0.3 0.8-0.8 1.4-0.8h7c1.5 0 2.2 1.5 1.5 2.7l-22 30.9v29.7c0 0.9-0.8 1.7-1.8 1.7h-6.1c-1 0-1.8-0.8-1.8-1.7zm65.7-32c0-0.9 0.8-1.8 1.7-1.8h6.2c0.9 0 1.7 0.9 1.7 1.8v61.5c0 0.9-0.8 1.8-1.7 1.8h-6.2c-0.9 0-1.7-0.9-1.7-1.8zm28-1c0-1 0.8-1.7 1.8-1.7h2.3l40.3 46.6h0.1v-43.9c0-0.9 0.7-1.8 1.7-1.8h6c0.9 0 1.7 0.9 1.7 1.8v62.5c0 0.9-0.8 1.7-1.7 1.7h-2.5l-40.2-48h-0.1v45.3c0 0.9-0.8 1.7-1.8 1.7h-5.8c-1 0-1.8-0.8-1.8-1.7zm68.8 54.9c0.8-1.2 1.6-2.6 2.4-3.8 0.8-1.2 2.1-1.6 3.2-0.8 0.5 0.5 7.7 6.4 14.8 6.4 6.4 0 10.5-3.9 10.5-8.6 0-5.6-4.8-9.1-14-12.9-9.5-4-16.9-8.9-16.9-19.7 0-7.3 5.6-17.2 20.3-17.2 9.3 0 16.3 4.8 17.2 5.5 0.7 0.4 1.5 1.7 0.6 3.1-0.8 1.2-1.6 2.5-2.4 3.6-0.7 1.2-1.9 1.7-3.2 0.9-0.7-0.4-7.2-4.6-12.5-4.6-7.8 0-10.5 4.9-10.5 8.3 0 5.3 4.1 8.6 11.8 11.7 10.7 4.4 19.9 9.5 19.9 20.8 0 9.7-8.6 17.6-20.7 17.6-11.3 0-18.5-6-19.9-7.4-0.9-0.7-1.5-1.4-0.6-2.9zm53.5-53.9c0-0.9 0.9-1.8 1.8-1.8h6.2c1 0 1.8 0.9 1.8 1.8v38.3c0 9.3 5.9 16.6 15.4 16.6 9.5 0 15.6-7.2 15.6-16.4v-38.5c0-0.9 0.7-1.8 1.7-1.8h6.3c0.9 0 1.7 0.9 1.7 1.8v39c0 14.1-10.6 25.2-25.3 25.2-14.6 0-25.2-11.1-25.2-25.2zm68.4 0c0-0.9 0.8-1.8 1.8-1.8h25.2c11.2 0 20.3 8.9 20.3 19.9 0 8.6-5.7 15.6-13.8 18.9l12.7 23.6c0.7 1.2 0 2.7-1.5 2.7h-7.3c-0.7 0-1.3-0.5-1.5-0.9l-12.3-24.6h-14v23.7c0 0.9-0.9 1.8-1.8 1.8h-6c-1 0-1.8-0.9-1.8-1.8zm26.3 29.8c6 0 11.3-5.1 11.3-11.5 0-6-5.3-11.1-11.3-11.1h-16.5v22.6zm36-29.8c0-0.9 0.8-1.8 1.8-1.8h37.1c1 0 1.8 0.9 1.8 1.8v5.2c0 0.9-0.8 1.8-1.8 1.8h-29.3v18.9h24.8c0.9 0 1.7 0.8 1.7 1.8v5.2c0 1-0.8 1.7-1.7 1.7h-24.8v20h29.3c1 0 1.8 0.8 1.8 1.8v5.1c0 0.9-0.8 1.7-1.8 1.7h-37.1c-1 0-1.8-0.8-1.8-1.7zm54.7 0c0-1 0.7-1.8 1.6-1.8h21.4c17.9 0 32.6 14.6 32.6 32.4 0 18-14.7 32.6-32.6 32.6h-21.4c-0.9 0-1.6-0.8-1.6-1.7zm21.7 54.4c13.6 0 23.6-10 23.6-23.8 0-13.6-10-23.6-23.6-23.6h-12.3v47.4zm66.5-12.6c-12.4 0-22.3-10-22.3-22.3 0-12.4 9.9-22.4 22.3-22.4 12.4 0 22.4 10 22.4 22.4 0 12.3-10 22.3-22.4 22.3zm17.5-22.3c0-9.7-7.9-17.5-17.5-17.5-9.7 0-17.5 7.8-17.5 17.5 0 9.7 7.8 17.5 17.5 17.5 9.6 0 17.5-7.8 17.5-17.5zm-25.9-10.3c0-0.6 0.5-1.1 1.2-1.1h9.7c3.8 0 7.6 2.8 7.6 7.7 0 4.1-2.5 5.9-4.4 6.9l2.9 6.4c0.3 0.9-0.2 1.7-1.1 1.7h-3.4c-0.5 0-0.9-0.4-1.1-0.8l-2.7-7h-3.2v6.6c0 0.7-0.5 1.2-1.2 1.2h-3.1c-0.7 0-1.2-0.5-1.2-1.2zm10.2 9.2c1.5 0 2.5-1.1 2.5-2.6 0-1.5-1-2.5-2.5-2.5h-4.9v5.1z"/></g></svg>

<svg width="1546" height="403" viewBox="0 0 1546 403" fill="none" xmlns="http://www.w3.org/2000/svg">
<g clip-path="url(#clip0_389_10)">
<mask id="mask0_389_10" style="mask-type:luminance" maskUnits="userSpaceOnUse" x="-4554" y="-4347" width="6627" height="5124">
<path d="M-4554 -4347H2073V777H-4554V-4347Z" fill="white"/>
</mask>
<g mask="url(#mask0_389_10)">
<path d="M1.6002 223.6L10.7002 207.5C12.3002 205 15.9002 205.4 17.3002 206.4C18.1002 206.7 32.0002 217 44.7002 217C52.4002 217 58.0002 212.2 58.0002 205.4C58.0002 197.3 51.3002 191.1 38.1002 185.9C21.5002 179.3 0.700195 166.4 0.700195 143.2C0.700195 124.1 15.5002 104.7 45.3002 104.7C65.4002 104.7 80.8002 115 86.6002 119.2C88.9002 120.6 88.5002 124.1 87.8002 125.4L77.9002 140.3C76.6002 142.4 73.1002 144.1 71.3002 142.8C69.6002 141.8 55.5002 131.2 43.7002 131.2C36.8002 131.2 31.6002 135.8 31.6002 141.1C31.6002 148.2 37.4002 153.6 52.6002 159.8C67.7002 165.8 91.6002 177.6 91.6002 203.8C91.6002 223.7 74.4002 243.8 46.1002 243.8C21.0002 243.8 7.0002 233.4 2.6002 229C0.700195 227 0.100195 226.3 1.6002 223.6ZM185.4 110.3C185.4 108.4 186.9 106.7 189 106.7H269C271.1 106.7 272.7 108.4 272.7 110.3V131.4C272.7 133.3 271.1 135.1 269 135.1H215.5V159H259.5C261.4 159 263.2 160.8 263.2 162.7V183.8C263.2 185.9 261.4 187.4 259.5 187.4H215.5V213.5H269C271.1 213.5 272.7 215.3 272.7 217.2V238.2C272.7 240.2 271.1 241.9 269 241.9H189C186.9 241.9 185.4 240.2 185.4 238.2V110.3ZM364.5 110.3C364.5 108.4 366 106.7 368.1 106.7H391.1C393.1 106.7 394.8 108.4 394.8 110.3V213.5H440.7C442.9 213.5 444.4 215.3 444.4 217.2V238.2C444.4 240.2 442.9 241.9 440.7 241.9H368.1C366 241.9 364.5 240.2 364.5 238.2V110.3ZM535.7 110.3C535.7 108.4 537.2 106.7 539.3 106.7H619.3C621.4 106.7 623 108.4 623 110.3V131.4C623 133.3 621.4 135.1 619.3 135.1H565.8V159H609.8C611.8 159 613.5 160.8 613.5 162.7V183.8C613.5 185.9 611.8 187.4 609.8 187.4H565.8V213.5H619.3C621.4 213.5 623 215.3 623 217.2V238.2C623 240.2 621.4 241.9 619.3 241.9H539.3C537.2 241.9 535.7 240.2 535.7 238.2V110.3ZM786.3 104.7C805.6 104.7 819.9 110.7 833 122.7C834.7 124.3 834.7 126.6 833.2 128.1L818.1 143.8C816.8 145.1 814.7 145.1 813.3 143.8C806.2 137.4 796.7 133.9 787.2 133.9C765.4 133.9 749.4 152.1 749.4 173.7C749.4 195.2 765.6 212.9 787.4 212.9C796.5 212.9 806.4 209.6 813.3 203.7C814.7 202.5 817.2 202.5 818.3 203.9L833.4 219.9C834.7 221.2 834.6 223.8 833.2 225.1C820.1 237.9 803.5 243.8 786.3 243.8C747.7 243.8 716.6 213.1 716.6 174.5C716.6 135.8 747.7 104.7 786.3 104.7ZM957.9 135.1H930.3C928.2 135.1 926.6 133.3 926.6 131.4V110.3C926.6 108.4 928.2 106.7 930.3 106.7H1016C1018.2 106.7 1019.7 108.4 1019.7 110.3V131.4C1019.7 133.3 1018.2 135.1 1016 135.1H988.4V238.2C988.4 240.2 986.7 241.9 984.8 241.9H961.6C959.6 241.9 957.9 240.2 957.9 238.2V135.1ZM1112.7 110.4C1112.7 108.5 1114.5 106.8 1116.4 106.8H1139.6C1141.5 106.8 1143.2 108.5 1143.2 110.4V238.3C1143.2 240.2 1141.5 242 1139.6 242H1116.4C1114.5 242 1112.7 240.2 1112.7 238.3V110.4ZM1235.7 111.8C1234.6 109.3 1236.1 106.8 1239 106.8H1264.7C1266.2 106.8 1267.6 107.9 1268 108.9L1299.8 179.4H1301L1332.9 108.9C1333.2 107.9 1334.6 106.8 1336.1 106.8H1361.8C1364.7 106.8 1366.3 109.3 1365.1 111.8L1304.5 241.8C1303.9 243 1302.7 243.9 1301.2 243.9H1299.3C1297.7 243.9 1296.6 243 1296 241.8L1235.7 111.8ZM1458.5 110.4C1458.5 108.5 1460 106.8 1462.2 106.8H1542.1C1544.2 106.8 1545.8 108.5 1545.8 110.4V131.5C1545.8 133.4 1544.2 135.2 1542.1 135.2H1488.6V159.1H1532.6C1534.6 159.1 1536.3 160.9 1536.3 162.8V183.9C1536.3 186 1534.6 187.5 1532.6 187.5H1488.6V213.6H1542.1C1544.2 213.6 1545.8 215.4 1545.8 217.3V238.3C1545.8 240.3 1544.2 242 1542.1 242H1462.2C1460 242 1458.5 240.3 1458.5 238.3V110.4Z" fill="white"/>
<path d="M1300.4 60C1283.8 60 1270.4 46.6 1270.4 30C1270.4 13.4 1283.8 0 1300.4 0C1317 0 1330.4 13.4 1330.4 30C1330.4 46.6 1317 60 1300.4 60ZM1211.2 75C1198.7 75 1188.7 64.9 1188.7 52.5C1188.7 40.1 1198.7 30 1211.2 30C1223.6 30 1233.6 40.1 1233.6 52.5C1233.6 64.9 1223.6 75 1211.2 75ZM1388.6 75C1376.2 75 1366.2 64.9 1366.2 52.5C1366.2 40.1 1376.2 30 1388.6 30C1401 30 1411.1 40.1 1411.1 52.5C1411.1 64.9 1401 75 1388.6 75Z" fill="#FFCF31"/>
<path fill-rule="evenodd" clip-rule="evenodd" d="M273.5 320.5C273.5 319.6 274.3 318.7 275.3 318.7H296.1C307.3 318.7 315.4 326.2 315.4 335.9C315.4 343.1 310.1 348.2 305.7 350.7C310.6 352.7 317.3 357.3 317.3 365.8C317.3 376.2 308.8 383.8 297.1 383.8H275.3C274.3 383.8 273.5 382.9 273.5 382V320.5ZM297 375.2C302.7 375.2 307 370.8 307 365.1C307 359.4 301.6 355.3 295.6 355.3H282.9V375.2H297ZM295.5 347C301.4 347 305.1 342.6 305.1 337C305.1 331.4 301.4 327.5 295.5 327.5H283V347H295.5ZM332.3 320.5C332.3 319.6 333 318.7 334 318.7H371.2C372.2 318.7 372.9 319.6 372.9 320.5V325.7C372.9 326.6 372.2 327.5 371.2 327.5H341.8V346.4H366.6C367.6 346.4 368.4 347.3 368.4 348.2V353.4C368.4 354.4 367.6 355.1 366.6 355.1H341.8V375.1H371.2C372.2 375.1 372.9 375.9 372.9 376.9V382C372.9 382.9 372.2 383.7 371.2 383.7H334C333 383.7 332.3 382.9 332.3 382V320.5ZM411.2 320.5C411.2 319.6 412 318.7 412.9 318.7H419.2C420.2 318.7 420.9 319.6 420.9 320.5V358.8C420.9 368.1 426.9 375.4 436.3 375.4C445.9 375.4 451.9 368.2 451.9 359V320.5C451.9 319.6 452.7 318.7 453.7 318.7H459.9C460.8 318.7 461.7 319.6 461.7 320.5V359.5C461.7 373.6 451 384.7 436.3 384.7C421.8 384.7 411.2 373.6 411.2 359.5V320.5ZM479.6 319.5C479.6 318.5 480.4 317.8 481.3 317.8H483.6L523.9 364.4H524V320.5C524 319.6 524.8 318.7 525.8 318.7H531.7C532.7 318.7 533.5 319.6 533.5 320.5V383C533.5 383.9 532.7 384.7 531.7 384.7H529.3L489 336.7H488.9V382C488.9 382.9 488.2 383.7 487.2 383.7H481.3C480.4 383.7 479.6 382.9 479.6 382V319.5ZM552 320.5C552 319.6 552.9 318.7 553.8 318.7H559.9C560.8 318.7 561.7 319.6 561.7 320.5V382C561.7 382.9 560.8 383.8 559.9 383.8H553.8C552.9 383.8 552 382.9 552 382V320.5ZM609 317.8C627.5 317.8 642.4 332.7 642.4 351.3C642.4 364.5 634.7 375.9 623.5 381.5L634.7 399.3C635.5 400.6 634.7 402.1 633.2 402.1H626C625.6 402.1 624.8 401.8 624.5 401.2L614.5 384.3C612.7 384.6 610.6 384.7 609 384.7C590.4 384.7 575.6 369.9 575.6 351.3C575.6 332.7 590.4 317.8 609 317.8ZM633.1 351.2C633.1 337.9 622.3 327.1 609 327.1C595.7 327.1 584.9 337.9 584.9 351.2C584.9 364.6 595.7 375.4 609 375.4C622.3 375.4 633.1 364.6 633.1 351.2ZM655.8 320.5C655.8 319.6 656.6 318.7 657.5 318.7H663.8C664.8 318.7 665.5 319.6 665.5 320.5V358.8C665.5 368.1 671.5 375.4 680.9 375.4C690.5 375.4 696.5 368.2 696.5 359V320.5C696.5 319.6 697.3 318.7 698.3 318.7H704.5C705.4 318.7 706.3 319.6 706.3 320.5V359.5C706.3 373.6 695.6 384.7 680.9 384.7C666.4 384.7 655.8 373.6 655.8 359.5V320.5ZM724.2 320.5C724.2 319.6 724.9 318.7 725.9 318.7H763.1C764.1 318.7 764.8 319.6 764.8 320.5V325.7C764.8 326.6 764.1 327.5 763.1 327.5H733.7V346.4H758.5C759.4 346.4 760.3 347.2 760.3 348.2V353.4C760.3 354.4 759.4 355.1 758.5 355.1H733.7V375.1H763.1C764.1 375.1 764.8 375.9 764.8 376.9V382C764.8 382.9 764.1 383.7 763.1 383.7H725.9C724.9 383.7 724.2 382.9 724.2 382V320.5ZM778.8 320.5C778.8 319.6 779.6 318.7 780.6 318.7H786.7C787.6 318.7 788.5 319.6 788.5 320.5V375.1H813.6C814.7 375.1 815.4 375.9 815.4 376.9V382C815.4 382.9 814.7 383.7 813.6 383.7H780.6C779.6 383.7 778.8 382.9 778.8 382V320.5ZM831.8 352.4L810.1 321.4C809.4 320.2 810.1 318.7 811.6 318.7H818.5C819.2 318.7 819.7 319.2 820 319.5L836.8 343.2L853.6 319.5C853.8 319.2 854.4 318.7 855 318.7H862C863.5 318.7 864.2 320.2 863.5 321.4L841.5 352.3V382C841.5 382.9 840.7 383.7 839.7 383.7H833.6C832.6 383.7 831.8 382.9 831.8 382V352.4ZM897.5 320.4C897.5 319.5 898.3 318.6 899.2 318.6H905.4C906.3 318.6 907.1 319.5 907.1 320.4V381.9C907.1 382.8 906.3 383.7 905.4 383.7H899.2C898.3 383.7 897.5 382.8 897.5 381.9V320.4ZM925.5 319.4C925.5 318.4 926.3 317.7 927.3 317.7H929.6L969.9 364.3H970V320.4C970 319.5 970.7 318.6 971.7 318.6H977.7C978.6 318.6 979.4 319.5 979.4 320.4V382.9C979.4 383.8 978.6 384.6 977.7 384.6H975.2L935 336.6H934.9V381.9C934.9 382.8 934.1 383.6 933.1 383.6H927.3C926.3 383.6 925.5 382.8 925.5 381.9V319.4ZM994.3 374.3C995.1 373.1 995.9 371.7 996.7 370.5C997.5 369.3 998.8 368.9 999.9 369.7C1000.4 370.2 1007.6 376.1 1014.7 376.1C1021.1 376.1 1025.2 372.2 1025.2 367.5C1025.2 361.9 1020.4 358.4 1011.2 354.6C1001.7 350.6 994.3 345.7 994.3 334.9C994.3 327.6 999.9 317.7 1014.6 317.7C1023.9 317.7 1030.9 322.5 1031.8 323.2C1032.5 323.6 1033.3 324.9 1032.4 326.3C1031.6 327.5 1030.8 328.8 1030 329.9C1029.3 331.1 1028.1 331.6 1026.8 330.8C1026.1 330.4 1019.6 326.2 1014.3 326.2C1006.5 326.2 1003.8 331.1 1003.8 334.5C1003.8 339.8 1007.9 343.1 1015.6 346.2C1026.3 350.6 1035.5 355.7 1035.5 367C1035.5 376.7 1026.9 384.6 1014.8 384.6C1003.5 384.6 996.3 378.6 994.9 377.2C994 376.5 993.4 375.8 994.3 374.3ZM1047.8 320.4C1047.8 319.5 1048.7 318.6 1049.6 318.6H1055.8C1056.8 318.6 1057.6 319.5 1057.6 320.4V358.7C1057.6 368 1063.5 375.3 1073 375.3C1082.5 375.3 1088.6 368.1 1088.6 358.9V320.4C1088.6 319.5 1089.3 318.6 1090.3 318.6H1096.6C1097.5 318.6 1098.3 319.5 1098.3 320.4V359.4C1098.3 373.5 1087.7 384.6 1073 384.6C1058.4 384.6 1047.8 373.5 1047.8 359.4V320.4ZM1116.2 320.4C1116.2 319.5 1117 318.6 1118 318.6H1143.2C1154.4 318.6 1163.5 327.5 1163.5 338.5C1163.5 347.1 1157.8 354.1 1149.7 357.4L1162.4 381C1163.1 382.2 1162.4 383.7 1160.9 383.7H1153.6C1152.9 383.7 1152.3 383.2 1152.1 382.8L1139.8 358.2H1125.8V381.9C1125.8 382.8 1124.9 383.7 1124 383.7H1118C1117 383.7 1116.2 382.8 1116.2 381.9V320.4ZM1142.5 350.2C1148.5 350.2 1153.8 345.1 1153.8 338.7C1153.8 332.7 1148.5 327.6 1142.5 327.6H1126V350.2H1142.5ZM1178.5 320.4C1178.5 319.5 1179.3 318.6 1180.3 318.6H1217.4C1218.4 318.6 1219.2 319.5 1219.2 320.4V325.6C1219.2 326.5 1218.4 327.4 1217.4 327.4H1188.1V346.3H1212.9C1213.8 346.3 1214.6 347.1 1214.6 348.1V353.3C1214.6 354.3 1213.8 355 1212.9 355H1188.1V375H1217.4C1218.4 375 1219.2 375.8 1219.2 376.8V381.9C1219.2 382.8 1218.4 383.6 1217.4 383.6H1180.3C1179.3 383.6 1178.5 382.8 1178.5 381.9V320.4ZM1233.2 320.4C1233.2 319.4 1233.9 318.6 1234.8 318.6H1256.2C1274.1 318.6 1288.8 333.2 1288.8 351C1288.8 369 1274.1 383.6 1256.2 383.6H1234.8C1233.9 383.6 1233.2 382.8 1233.2 381.9V320.4ZM1254.9 374.8C1268.5 374.8 1278.5 364.8 1278.5 351C1278.5 337.4 1268.5 327.4 1254.9 327.4H1242.6V374.8H1254.9ZM1321.4 362.2C1309 362.2 1299.1 352.2 1299.1 339.9C1299.1 327.5 1309 317.5 1321.4 317.5C1333.8 317.5 1343.8 327.5 1343.8 339.9C1343.8 352.2 1333.8 362.2 1321.4 362.2ZM1338.9 339.9C1338.9 330.2 1331 322.4 1321.4 322.4C1311.7 322.4 1303.9 330.2 1303.9 339.9C1303.9 349.6 1311.7 357.4 1321.4 357.4C1331 357.4 1338.9 349.6 1338.9 339.9ZM1313 329.6C1313 329 1313.5 328.5 1314.2 328.5H1323.9C1327.7 328.5 1331.5 331.3 1331.5 336.2C1331.5 340.3 1329 342.1 1327.1 343.1L1330 349.5C1330.3 350.4 1329.8 351.2 1328.9 351.2H1325.5C1325 351.2 1324.6 350.8 1324.4 350.4L1321.7 343.4H1318.5V350C1318.5 350.7 1318 351.2 1317.3 351.2H1314.2C1313.5 351.2 1313 350.7 1313 350V329.6ZM1323.2 338.8C1324.7 338.8 1325.7 337.7 1325.7 336.2C1325.7 334.7 1324.7 333.7 1323.2 333.7H1318.3V338.8H1323.2Z" fill="white"/>
</g>
</g>
<defs>
<clipPath id="clip0_389_10">
<rect width="1546" height="403" fill="white"/>
</clipPath>
</defs>
</svg>
